Adwaita++-Light/panel/22/pcloud-sync.svg

<svg height="22" width="22" xmlns="http://www.w3.org/2000/svg">
  <g fill="#444">
    <path d="m11.5 4.0002372a6.5 6.5 0 0 0 -6.0097656 4.03125 5 5 0 0 0 -4.4902344 4.9687498 5 5 0 0 0 5 5h6.423828a5 5 0 0 1 -.423828-2 5 5 0 0 1 .113281-1.046875 4.5 4.5 0 0 1 -.613281.046875 4.5 4.5 0 0 1 -4.5-4.5 4.5 4.5 0 0 1 4.5-4.4999998 4.5 4.5 0 0 1 4.5 4.4999998 4.5 4.5 0 0 1 -.048828.617188 5 5 0 0 1 1.048828-.117188 5 5 0 0 1 2.490234.669922 3 3 0 0 0 .509766-1.669922 3 3 0 0 0 -3-2.9999998 3 3 0 0 0 -.02344 0 6.5 6.5 0 0 0 -5.476562-3zm0 3a3.5 3.5 0 0 0 -3.5 3.4999998 3.5 3.5 0 0 0 3.5 3.5 3.5 3.5 0 0 0 .990234-.144531 5 5 0 0 1 2.365235-2.365235 3.5 3.5 0 0 0 .144531-.990234 3.5 3.5 0 0 0 -3.5-3.4999998zm-1.5 1h1 1.5a1.5 1.5 0 0 1 1.5 1.4999999 1.5 1.5 0 0 1 -1.5 1.4999999h-1.5v2h-1v-2zm1 .9999999v.9999999h1.5a.5.5 0 0 0 .5-.4999999.5.5 0 0 0 -.5-.5z"/>
    <path d="m20.464742 13.999335c-1.1045-1.9131-3.551-2.5687-5.4641-1.4641-1.9132 1.1046-2.5686 3.5509-1.4641 5.4641 1.1045 1.9131 3.551 2.5687 5.4641 1.4641 1.9132-1.1046 2.5686-3.5509 1.4641-5.4641zm-.86601.5a3 3 0 0 1 -1.0981 4.0981l-.49998-.8661a2 2 0 0 0 .73208-2.7321l.86598-.4999zm-4.0981-1.0981.49998.8661a2 2 0 0 0 -.73208 2.7321l-.86598.4999a3 3 0 0 1 1.0981-4.0981z"/>
  </g>
</svg>

<svg xmlns="http://www.w3.org/2000/svg" width="22" height="22" version="1.1">
 <defs>
  <style id="current-color-scheme" type="text/css">
   .ColorScheme-Text { color:#444444; } .ColorScheme-Highlight { color:#4285f4; }
  </style>
 </defs>
 <path style="fill:currentColor" class="ColorScheme-Text" d="M 11.5,4.0002372 A 6.5,6.5 0 0 0 5.4902344,8.0314872 5,5 0 0 0 1,13.000237 a 5,5 0 0 0 5,5 h 6.423828 A 5,5 0 0 1 12,16.000237 5,5 0 0 1 12.113281,14.953362 4.5,4.5 0 0 1 11.5,15.000237 4.5,4.5 0 0 1 7,10.500237 4.5,4.5 0 0 1 11.5,6.0002372 4.5,4.5 0 0 1 16,10.500237 4.5,4.5 0 0 1 15.951172,11.117425 5,5 0 0 1 17,11.000237 5,5 0 0 1 19.490234,11.670159 3,3 0 0 0 20,10.000237 3,3 0 0 0 17,7.0002372 a 3,3 0 0 0 -0.02344,0 6.5,6.5 0 0 0 -5.476562,-3 z m 0,3 A 3.5,3.5 0 0 0 8,10.500237 a 3.5,3.5 0 0 0 3.5,3.5 3.5,3.5 0 0 0 0.990234,-0.144531 5,5 0 0 1 2.365235,-2.365235 A 3.5,3.5 0 0 0 15,10.500237 3.5,3.5 0 0 0 11.5,7.0002372 Z m -1.5,1 h 1 1.5 A 1.5,1.5 0 0 1 14,9.5002371 1.5,1.5 0 0 1 12.5,11.000237 H 11 v 2 h -1 v -2 z m 1,0.9999999 v 0.9999999 h 1.5 a 0.5,0.5 0 0 0 0.5,-0.4999999 0.5,0.5 0 0 0 -0.5,-0.5 z"/>
 <path style="fill:currentColor" class="ColorScheme-Text" d="m 20.464742,13.999335 c -1.1045,-1.9131 -3.551,-2.5687 -5.4641,-1.4641 -1.9132,1.1046 -2.5686,3.5509 -1.4641,5.4641 1.1045,1.9131 3.551,2.5687 5.4641,1.4641 1.9132,-1.1046 2.5686,-3.5509 1.4641,-5.4641 z m -0.86601,0.5 a 3,3 0 0 1 -1.0981,4.0981 l -0.49998,-0.8661 a 2,2 0 0 0 0.73208,-2.7321 l 0.86598,-0.4999 z m -4.0981,-1.0981 0.49998,0.8661 a 2,2 0 0 0 -0.73208,2.7321 l -0.86598,0.4999 a 3,3 0 0 1 1.0981,-4.0981 z"/>
</svg>
